X: 2
T: The Boy In The Gap
R: reel
M: 4/4
L: 1/8
K: Dmix
|:df~f2 df~f2|^ce~e2 ce~e2|df~f2 defg|a2ge fdde|f2e^c dBAF|G2BG EFGE|D2FA dfef|=cAGE FDD2:||


Tune 1579	Setting 14989

